X:1
T:The Blessed Home, 12.12.12.12
T:The Blessed Home, 12.12.12.12
T:John Stainer, 1875
T:Public Domain Courtesy of the Cyber Hymnal™
C:John Stainer, 1875
Z:Public Domain
Z:Courtesy of the Cyber Hymnal™
%%score ( 1 2 ) ( 3 4 )
L:1/8
Q:1/4=115
M:4/4
K:Ab
V:1 treble 
V:2 treble 
V:3 bass 
V:4 bass 
V:1
 [Ec]2 | [FB]2 F2 [EG]2 [DE]2 | A6 [Ec]2 | [FB]2 F2 [EG]2 [DE]2 | [CA]6 [EA]2 | %5
 [EG]2 [=DF]2 [EG]2 [DA]2 | [EB]2 [Ec]2 [EB]2 E2 | ([EG]2 [FA]2) [=DF]4 | E6 E2 | %9
 [EB]2 [E=A]2 [EB]2 [_Gc]2 | [Fd]4 (c2 B2) | [FA]2 G2 [FA]2 [FB]2 | [=Ec]6 [FA]2 | %13
 [DB]2 [Ec]2 [Ad]2 [_Ge]2 | [Ff]6 [_Ge]2 | [Fd]2 F2 F2 [EG]2 | [EA]6 |] %17
V:2
 x2 | x2 F2 x4 | (C2 D2 E2) x2 | x2 F2 x4 | x8 | x8 | x6 E2 | x8 | E6 E2 | x8 | x4 =E4 | x2 G2 x4 | %12
 x8 | x8 | x8 | x2 F2 F2 x2 | x6 |] %17
V:3
 A,2 | [D,D]2 [D,D]2 [E,C]2 [E,B,]2 | (A,2 B,2 C2) [A,C]2 | [D,D]2 [D,D]2 [E,C]2 [E,B,]2 | %4
 [A,,A,]6 [A,C]2 | [A,B,]2 [A,B,]2 [G,B,]2 [F,A,]2 | [E,G,]2 A,2 [G,B,]2 [A,C]2 | B,4 z2 A,2 | %8
 [E,G,]6 [E,G,]2 | [E,G,]2 [E,^F,]2 [E,G,]2 [E,=A,]2 | (B,2 A,2) (G,2 C2) | %11
 [F,C]2 [=E,C]2 [F,A,]2 [D,F,]2 | [C,G,]6 [F,A,]2 | [F,A,]2 [G,A,]2 [F,A,]2 [A,C]2 | D6 [A,C]2 | %15
 [D,D]2 [D,D]2 [E,D]2 [E,D]2 | [A,,C]6 |] %17
V:4
 A,2 | x8 | A,,6 x2 | x8 | x8 | x8 | x2 A,2 x4 | B,4 B,,4 | x8 | x8 | B,,4 C,4 | x8 | x8 | x8 | %14
 D6 x2 | x8 | x6 |] %17

